icons/file-ppt-16.svg

<svg id="icons" xmlns="http://www.w3.org/2000/svg" viewBox="0 0 16 16"><path d="M11.40039,0H2V7H3V1h7V5h4V15H2v1H15V3.59961ZM14,4H11V1h.31049L14,3.68951ZM12,6V8h1V9H12v2h1v1H12a1.00067,1.00067,0,0,1-1-1V9H10V8h1V6ZM6,11.93591A1.37544,1.37544,0,0,0,6.39551,12h1.209A1.397,1.397,0,0,0,9,10.60449v-1.209A1.397,1.397,0,0,0,7.60449,8h-1.209A1.37541,1.37541,0,0,0,6,8.064V8H5v6H6ZM6.39551,9h1.209A.39635.39635,0,0,1,8,9.39551v1.209A.39635.39635,0,0,1,7.60449,11h-1.209A.39635.39635,0,0,1,6,10.60449v-1.209A.39635.39635,0,0,1,6.39551,9ZM4,10.60449v-1.209A1.397,1.397,0,0,0,2.60449,8h-1.209A1.37541,1.37541,0,0,0,1,8.064V8H0v6H1V11.93591A1.37544,1.37544,0,0,0,1.39551,12h1.209A1.397,1.397,0,0,0,4,10.60449ZM2.60449,11h-1.209A.39635.39635,0,0,1,1,10.60449v-1.209A.39635.39635,0,0,1,1.39551,9h1.209A.39635.39635,0,0,1,3,9.39551v1.209A.39635.39635,0,0,1,2.60449,11Z"/><path fill="none" d="M0 0h16v16H0z"/></svg>

<svg xmlns="http://www.w3.org/2000/svg" viewBox="0 0 16 16"><path d="M11.4 0H2v7h1V1h7v4h4v10H2v1h13V3.6zM14 4h-3V1h.31L14 3.69zm-2 2v2h1v1h-1v2h1v1h-1a1 1 0 0 1-1-1V9h-1V8h1V6zm-6 5.936a1.375 1.375 0 0 0 .396.064h1.209A1.397 1.397 0 0 0 9 10.604V9.395A1.397 1.397 0 0 0 7.604 8H6.395A1.375 1.375 0 0 0 6 8.064V8H5v6h1zM6.396 9h1.209A.396.396 0 0 1 8 9.396v1.209a.396.396 0 0 1-.396.395H6.395A.396.396 0 0 1 6 10.604V9.395A.396.396 0 0 1 6.396 9zM4 10.604V9.395A1.397 1.397 0 0 0 2.604 8H1.395A1.375 1.375 0 0 0 1 8.064V8H0v6h1v-2.064a1.375 1.375 0 0 0 .396.064h1.209A1.397 1.397 0 0 0 4 10.604zM2.604 11H1.395A.396.396 0 0 1 1 10.604V9.395A.396.396 0 0 1 1.396 9h1.209A.396.396 0 0 1 3 9.396v1.209a.396.396 0 0 1-.396.395z"/><path fill="none" d="M0 0h16v16H0z"/></svg>
